X:1
T:Ballydesmond Polka
R:polka
M:2/4
L:1/8
K:Ador
cd/c/ Bc/B/|AB/A/ G>A|Bd ed|ga/g/ ed|
ea g>e|dB GA/B/|ce dB|A2 A2:|
ea ag/e/|dg gd|ea ab|ga/g/ ed|
ea g>e|dB GA/B/|ce dB|A2 A2:|
</abc>
